img/experience.svg

<svg width="64" height="64" xmlns="http://www.w3.org/2000/svg">

 <g>
  <title>background</title>
  <rect fill="none" id="canvas_background" height="402" width="582" y="-1" x="-1"/>
 </g>
 <g>
  <title>Layer 1</title>
  <path fill="#326182" id="svg_2" d="m34.464,36.664l0,-1.116c0,-1.361 -1.103,-2.464 -2.463,-2.464c-1.361,0 -2.464,1.103 -2.464,2.464l0,1.116c0,1.361 1.103,2.464 2.464,2.464c1.359,0 2.463,-1.103 2.463,-2.464z"/>
  <path fill="#326182" id="svg_3" d="m36.154,38.027c-0.546,1.787 -2.191,3.099 -4.153,3.099c-1.963,0 -3.608,-1.312 -4.154,-3.099l-16.969,0c-1.071,0 -2.083,-0.249 -2.991,-0.681l0,11.267c0,2.2 1.8,4 4,4l40.226,0c2.2,0 4,-1.8 4,-4l0,-11.266c-0.909,0.432 -1.92,0.681 -2.991,0.681l-16.968,0l0,-0.001z"/>
  <path fill="#326182" id="svg_4" d="m52.955,17.795l-9.601,0c-0.58,-3.626 -3.721,-6.408 -7.508,-6.408l-7.693,0c-3.787,0 -6.927,2.782 -7.508,6.408l-9.6,0c-2.292,0 -4.167,1.8 -4.167,4l0,9.233c0,2.209 1.791,4 4,4l16.78,0c0.057,-1.151 0.551,-2.185 1.332,-2.933c0.024,-0.023 0.052,-0.041 0.077,-0.063c0.173,-0.159 0.353,-0.309 0.55,-0.439c0.07,-0.047 0.15,-0.079 0.223,-0.121c0.162,-0.093 0.322,-0.19 0.497,-0.262c0.137,-0.057 0.285,-0.09 0.429,-0.133c0.124,-0.037 0.242,-0.086 0.371,-0.112c0.279,-0.057 0.568,-0.087 0.863,-0.087c0.296,0 0.584,0.031 0.863,0.087c0.128,0.026 0.246,0.075 0.37,0.112c0.144,0.043 0.292,0.076 0.429,0.134c0.174,0.072 0.333,0.168 0.495,0.261c0.074,0.043 0.154,0.075 0.225,0.122c0.197,0.129 0.376,0.279 0.549,0.438c0.025,0.023 0.054,0.041 0.078,0.065c0.782,0.748 1.275,1.782 1.332,2.933l16.78,0c2.209,0 4,-1.791 4,-4l0,-9.233c0.001,-2.202 -1.874,-4.002 -4.166,-4.002zm-28.459,0c0.51,-1.541 1.947,-2.664 3.657,-2.664l7.693,0c1.71,0 3.147,1.123 3.657,2.664l-15.007,0z"/>
 </g>
</svg>

<?xml version="1.0" encoding="UTF-8" standalone="no"?>
<!DOCTYPE svg PUBLIC "-//W3C//DTD SVG 1.1//EN" "http://www.w3.org/Graphics/SVG/1.1/DTD/svg11.dtd">
<svg width="100%" height="100%" viewBox="0 0 64 64" version="1.1" xmlns="http://www.w3.org/2000/svg" xmlns:xlink="http://www.w3.org/1999/xlink" xml:space="preserve" style="fill-rule:evenodd;clip-rule:evenodd;stroke-linejoin:round;stroke-miterlimit:1.41421;">
    <rect id="canvas_background" x="-1" y="-1" width="582" height="402" style="fill:none;"/>
    <g>
        <path id="svg_2" d="M34.464,36.664L34.464,35.548C34.464,34.187 33.361,33.084 32.001,33.084C30.64,33.084 29.537,34.187 29.537,35.548L29.537,36.664C29.537,38.025 30.64,39.128 32.001,39.128C33.36,39.128 34.464,38.025 34.464,36.664Z" style="fill:rgb(50,97,130);fill-rule:nonzero;"/>
        <path id="svg_3" d="M36.154,38.027C35.608,39.814 33.963,41.126 32.001,41.126C30.038,41.126 28.393,39.814 27.847,38.027L10.878,38.027C9.807,38.027 8.795,37.778 7.887,37.346L7.887,48.613C7.887,50.813 9.687,52.613 11.887,52.613L52.113,52.613C54.313,52.613 56.113,50.813 56.113,48.613L56.113,37.347C55.204,37.779 54.193,38.028 53.122,38.028L36.154,38.028L36.154,38.027L36.154,38.027Z" style="fill:rgb(50,97,130);fill-rule:nonzero;"/>
        <path id="svg_4" d="M52.955,17.795L43.354,17.795C42.774,14.169 39.633,11.387 35.846,11.387L28.153,11.387C24.366,11.387 21.226,14.169 20.645,17.795L11.045,17.795C8.753,17.795 6.878,19.595 6.878,21.795L6.878,31.028C6.878,33.237 8.669,35.028 10.878,35.028L27.658,35.028C27.715,33.877 28.209,32.843 28.99,32.095C29.014,32.072 29.042,32.054 29.067,32.032C29.24,31.873 29.42,31.723 29.617,31.593C29.687,31.546 29.767,31.514 29.84,31.472C30.002,31.379 30.162,31.282 30.337,31.21C30.474,31.153 30.622,31.12 30.766,31.077C30.89,31.04 31.008,30.991 31.137,30.965C31.416,30.908 31.705,30.878 32,30.878C32.296,30.878 32.584,30.909 32.863,30.965C32.991,30.991 33.109,31.04 33.233,31.077C33.377,31.12 33.525,31.153 33.662,31.211C33.836,31.283 33.995,31.379 34.157,31.472C34.231,31.515 34.311,31.547 34.382,31.594C34.579,31.723 34.758,31.873 34.931,32.032C34.956,32.055 34.985,32.073 35.009,32.097C35.791,32.845 36.284,33.879 36.341,35.03L53.121,35.03C55.33,35.03 57.121,33.239 57.121,31.03L57.121,21.797C57.122,19.595 55.247,17.795 52.955,17.795ZM24.496,17.795C25.006,16.254 26.443,15.131 28.153,15.131L35.846,15.131C37.556,15.131 38.993,16.254 39.503,17.795L24.496,17.795L24.496,17.795Z" style="fill:rgb(50,97,130);fill-rule:nonzero;"/>
    </g>
</svg>
